usr/share/icons/biglinux-icons-material/scalable/apps/kalgebra.svg

<?xml version="1.0" encoding="UTF-8" standalone="no"?>
<svg
   width="24"
   height="24"
   version="1.1"
   id="svg13"
   sodipodi:docname="org.kde.kalgebra.svg"
   inkscape:version="1.3 (0e150ed6c4, 2023-07-21)"
   xmlns:inkscape="http://www.inkscape.org/namespaces/inkscape"
   xmlns:sodipodi="http://sodipodi.sourceforge.net/DTD/sodipodi-0.dtd"
   xmlns:xlink="http://www.w3.org/1999/xlink"
   xmlns="http://www.w3.org/2000/svg"
   xmlns:svg="http://www.w3.org/2000/svg"
   xmlns:sketch="http://www.bohemiancoding.com/sketch/ns">
  <sodipodi:namedview
     id="namedview13"
     pagecolor="#ffffff"
     bordercolor="#000000"
     borderopacity="0.25"
     inkscape:showpageshadow="2"
     inkscape:pageopacity="0.0"
     inkscape:pagecheckerboard="0"
     inkscape:deskcolor="#d1d1d1"
     inkscape:zoom="3.1679688"
     inkscape:cx="-14.362515"
     inkscape:cy="17.519112"
     inkscape:window-width="2560"
     inkscape:window-height="998"
     inkscape:window-x="0"
     inkscape:window-y="0"
     inkscape:window-maximized="1"
     inkscape:current-layer="svg13" />
  <defs
     id="defs6">
    <radialGradient
       fx="0"
       fy="0"
       cx="0"
       cy="0"
       r="1"
       gradientUnits="userSpaceOnUse"
       gradientTransform="matrix(0,21.999999,-21.999999,0,11.999535,0.99997958)"
       spreadMethod="pad"
       id="radialGradient25">
      <stop
         style="stop-color:#f4f1e8;stop-opacity:1;"
         offset="0"
         id="stop24" />
      <stop
         style="stop-color:#f8fafa;stop-opacity:0.72941178;"
         offset="1"
         id="stop25" />
    </radialGradient>
    <linearGradient
       id="a"
       x2="0"
       y1="543.79999"
       y2="503.79999"
       gradientTransform="matrix(1.3125,0,0,1.2,-464.25,-596.56)"
       gradientUnits="userSpaceOnUse">
      <stop
         stop-color="#e3dfd6"
         offset="0"
         id="stop1" />
      <stop
         stop-color="#f4f1e8"
         offset="1"
         id="stop2" />
    </linearGradient>
    <linearGradient
       id="c"
       x1="413.57001"
       x2="418.57001"
       y1="528.79999"
       y2="533.79999"
       gradientUnits="userSpaceOnUse">
      <stop
         stop-color="#bdb49e"
         stop-opacity=".259"
         offset="0"
         id="stop3" />
      <stop
         stop-color="#bdb49e"
         stop-opacity="0"
         offset="1"
         id="stop4" />
    </linearGradient>
    <linearGradient
       id="b"
       x1="414.57001"
       x2="426.57001"
       y1="531.79999"
       y2="543.79999"
       gradientUnits="userSpaceOnUse">
      <stop
         stop-color="#383e51"
         offset="0"
         id="stop5" />
      <stop
         stop-color="#655c6f"
         stop-opacity="0"
         offset="1"
         id="stop6" />
    </linearGradient>
    <radialGradient
       fx="0"
       fy="0"
       cx="0"
       cy="0"
       r="1"
       gradientUnits="userSpaceOnUse"
       gradientTransform="matrix(0,21.999999,-21.999999,0,11.999535,0.99997958)"
       spreadMethod="pad"
       id="radialGradient9652-9">
      <stop
         style="stop-color:#f4f1e8;stop-opacity:1;"
         offset="0"
         id="stop9648-1" />
      <stop
         style="stop-color:#e3dfd6;stop-opacity:1;"
         offset="1"
         id="stop9650-2" />
    </radialGradient>
    <radialGradient
       inkscape:collect="always"
       xlink:href="#radialGradient25"
       id="radialGradient23"
       gradientUnits="userSpaceOnUse"
       gradientTransform="matrix(0,21.999999,-21.999999,0,11.999535,0.99998)"
       cx="0"
       cy="0"
       fx="0"
       fy="0"
       r="1"
       spreadMethod="pad" />
  </defs>
  <path
     d="M 12,0.99999995 C 1.9999991,0.99999995 0.99999954,5.9999999 0.99999954,12 0.99999954,20 4,22.999999 12,22.999999 20,22.999999 22.999999,20 22.999999,12 22.999999,5.9999999 22,0.99999995 12,0.99999995 Z"
     sketch:type="MSShapeGroup"
     id="path6"
     style="font-variation-settings:normal;display:inline;vector-effect:none;fill:#44484c;fill-opacity:1;stroke-width:1.11627;stroke-linecap:butt;stroke-linejoin:miter;stroke-miterlimit:4;stroke-dasharray:none;stroke-dashoffset:0;stroke-opacity:1;-inkscape-stroke:none;stop-color:#000000"
     sodipodi:nodetypes="sssss"
     inkscape:label="Shape" />
  <path
     id="path9654"
     style="fill:url(#radialGradient9652-9);fill-rule:evenodd;stroke:none;stroke-width:1.33333"
     d="M 12,1.9746094 C 2.8863736,1.9746094 1.9746094,6.5318239 1.9746094,12 1.9746094,19.290902 4.7090987,22.025391 12,22.025391 19.290902,22.025391 22.025391,19.290902 22.025391,12 22.025391,6.5318239 21.113627,1.9746094 12,1.9746094 Z" />
  <path
     d="M 7.6521427,6.4811656 V 7.568137 h 0.00402 l 2.4960083,4.320107 -2.5000341,4.328964 v 1.133672 h 8.6957741 v -2.173943 h -1.086972 v 1.086971 H 8.8816281 L 11.406622,11.88905 v -0.0012 L 8.9122243,7.568137 h 5.2617467 v 0.5434857 h 1.086971 V 6.4811656 H 8.2854042 Z"
     fill="#bdb49e"
     id="path17"
     style="stroke-width:0.999996" />
  <path
     id="path23"
     style="fill:url(#radialGradient23);fill-rule:evenodd;stroke:none;stroke-width:1.33333"
     d="m 21.855469,14.814453 -1.824219,0.04883 c -2.171272,0.05824 -3.875252,1.770037 -3.820312,3.839844 l 0.07617,2.875 c 3.355376,-0.845043 5.058452,-2.947551 5.568361,-6.763672 z" />
  <path
     id="path25"
     style="fill:#da4453;fill-opacity:0.4;fill-rule:evenodd;stroke:none;stroke-width:1.33333"
     d="M 5.664062,3.1855469 C 5.478993,3.2827279 5.303984,3.3847037 5.136719,3.4921875 V 20.470703 c 0.16908,0.114861 0.343178,0.224878 0.527343,0.326172 z" />
  <path
     id="path26"
     style="fill:#007bda;fill-opacity:0.4;fill-rule:evenodd;stroke:none;stroke-width:1.33333"
     d="M 4.455078,3.9960938 C 4.259506,4.1629064 4.080592,4.3394759 3.914062,4.5234375 H 20.085938 C 19.919408,4.3394759 19.740494,4.1629064 19.544922,3.9960938 Z" />
</svg>

<svg xmlns="http://www.w3.org/2000/svg" xmlns:xlink="http://www.w3.org/1999/xlink" width="24" height="24"><defs><radialGradient id="a" cx="0" cy="0" r="1" fx="0" fy="0" gradientTransform="matrix(0 22 -22 0 12 1)" gradientUnits="userSpaceOnUse" spreadMethod="pad"><stop offset="0" style="stop-color:#f4f1e8;stop-opacity:1"/><stop offset="1" style="stop-color:#f8fafa;stop-opacity:.72941178"/></radialGradient><radialGradient id="b" cx="0" cy="0" r="1" fx="0" fy="0" gradientTransform="matrix(0 22 -22 0 12 1)" gradientUnits="userSpaceOnUse" spreadMethod="pad"><stop offset="0" style="stop-color:#f4f1e8;stop-opacity:1"/><stop offset="1" style="stop-color:#e3dfd6;stop-opacity:1"/></radialGradient><radialGradient xlink:href="#a" id="c" cx="0" cy="0" r="1" fx="0" fy="0" gradientTransform="matrix(0 22 -22 0 12 1)" gradientUnits="userSpaceOnUse" spreadMethod="pad"/></defs><path d="M12 1C2 1 1 6 1 12c0 8 3 11 11 11s11-3 11-11c0-6-1-11-11-11Z" style="font-variation-settings:normal;display:inline;vector-effect:none;fill:#44484c;fill-opacity:1;stroke-width:1.11627;stroke-linecap:butt;stroke-linejoin:miter;stroke-miterlimit:4;stroke-dasharray:none;stroke-dashoffset:0;stroke-opacity:1;-inkscape-stroke:none;stop-color:#000"/><path d="M12 1.975C2.886 1.975 1.975 6.532 1.975 12c0 7.29 2.734 10.025 10.025 10.025 7.29 0 10.025-2.734 10.025-10.025 0-5.468-.911-10.025-10.025-10.025Z" style="fill:url(#b);fill-rule:evenodd;stroke:none;stroke-width:1.33333"/><path fill="#bdb49e" d="M7.652 6.481v1.087h.004l2.496 4.32-2.5 4.33v1.133h8.696v-2.174H15.26v1.087H8.88l2.526-4.375v-.001l-2.495-4.32h5.262v.544h1.087v-1.63H8.285Z" style="stroke-width:.999996"/><path d="m21.855 14.814-1.824.05c-2.171.058-3.875 1.77-3.82 3.84l.076 2.874c3.355-.845 5.059-2.947 5.568-6.764z" style="fill:url(#c);fill-rule:evenodd;stroke:none;stroke-width:1.33333"/><path d="M5.664 3.186c-.185.097-.36.199-.527.306v16.979c.169.115.343.225.527.326z" style="fill:#da4453;fill-opacity:.4;fill-rule:evenodd;stroke:none;stroke-width:1.33333"/><path d="M4.455 3.996a5.85 5.85 0 0 0-.54.527h16.17a5.85 5.85 0 0 0-.54-.527Z" style="fill:#007bda;fill-opacity:.4;fill-rule:evenodd;stroke:none;stroke-width:1.33333"/></svg>
